static/images/innou-icon.svg

<svg width="40" height="40" viewBox="0 0 750 750" fill="#127800" xmlns="http://www.w3.org/2000/svg">
  <path d="M317.66 335.91C307.539 335.91 299.336 344.109 299.336 354.23V504.195C299.336 514.312 307.539 522.516 317.66 522.516C327.773 522.516 335.98 514.312 335.98 504.195V354.23C335.98 344.109 327.773 335.91 317.66 335.91Z"/>
  <path d="M128.938 358.938C118.816 358.938 110.613 367.141 110.613 377.262V500.445C110.613 510.566 118.816 518.766 128.938 518.766C139.055 518.766 147.258 510.566 147.258 500.445V377.262C147.258 367.141 139.055 358.938 128.938 358.938Z"/>
  <path d="M223.297 392.145C213.176 392.145 204.977 400.348 204.977 410.465V485.629C204.977 495.746 213.176 503.949 223.297 503.949C233.418 503.949 241.617 495.746 241.617 485.629V410.465C241.617 400.348 233.418 392.145 223.297 392.145Z"/>
  <path d="M412.613 346.633C402.496 346.633 394.293 354.836 394.293 364.953V460.918C394.293 471.035 402.496 479.238 412.613 479.238C422.73 479.238 430.934 471.035 430.934 460.918V364.953C430.934 354.836 422.73 346.633 412.613 346.633Z"/>
  <path d="M602.527 283.301C592.406 283.301 584.203 291.504 584.203 301.621V367.27C584.203 377.387 592.406 385.59 602.527 385.59C612.645 385.59 620.848 377.387 620.848 367.27V301.621C620.848 291.504 612.645 283.301 602.527 283.301Z"/>
  <path d="M699.113 350.911L590.379 447.2C590.246 447.321 590.129 447.45 590 447.571C589.766 447.789 589.539 448.012 589.316 448.243C589.105 448.461 588.902 448.688 588.707 448.914C588.52 449.133 588.332 449.348 588.156 449.575C587.953 449.829 587.766 450.086 587.578 450.348C587.422 450.567 587.27 450.789 587.125 451.016C586.949 451.293 586.781 451.567 586.621 451.848C586.484 452.086 586.352 452.332 586.227 452.579C586.086 452.852 585.949 453.129 585.824 453.411C585.703 453.68 585.59 453.95 585.48 454.227C585.379 454.497 585.277 454.766 585.184 455.043C585.086 455.336 584.992 455.633 584.91 455.93C584.832 456.207 584.762 456.477 584.695 456.754C584.625 457.055 584.566 457.356 584.508 457.664C584.457 457.957 584.414 458.254 584.375 458.551C584.336 458.836 584.301 459.125 584.281 459.418C584.25 459.75 584.238 460.082 584.23 460.414C584.223 460.582 584.203 460.747 584.203 460.918V540.559C584.203 544.477 581.027 547.653 577.113 547.653H66.6719C63.8867 547.653 61.6289 545.391 61.6289 542.606V526.45C61.6289 526.348 61.6133 526.25 61.6094 526.149C61.6055 525.797 61.582 525.442 61.5586 525.086C61.5391 524.832 61.5234 524.579 61.4922 524.325C61.4531 523.989 61.3984 523.653 61.3398 523.321C61.2969 523.055 61.2539 522.789 61.1953 522.528C61.1289 522.223 61.043 521.918 60.9609 521.614C60.8828 521.332 60.8086 521.051 60.7188 520.774C60.6289 520.5 60.5234 520.231 60.4219 519.961C60.3086 519.664 60.1992 519.368 60.0703 519.082C59.9609 518.836 59.8438 518.598 59.7227 518.352C59.5703 518.051 59.4219 517.747 59.2539 517.454C59.1289 517.231 58.9883 517.016 58.8555 516.797C58.668 516.497 58.4805 516.2 58.2734 515.911C58.2148 515.829 58.168 515.739 58.1094 515.657L40.4375 491.418C38.4648 488.715 37.5938 485.368 38 482.047L56.5 330.586C56.9141 327.188 59.918 324.707 63.3359 324.946L223.922 336.149C223.988 336.157 224.059 336.161 224.125 336.164L224.164 336.168C224.246 336.172 224.328 336.172 224.41 336.176C224.75 336.196 225.09 336.215 225.438 336.215C225.984 336.215 226.535 336.184 227.086 336.133C227.258 336.118 227.43 336.094 227.602 336.075C227.941 336.032 228.289 335.985 228.633 335.922C228.875 335.879 229.109 335.832 229.344 335.782C229.613 335.723 229.883 335.653 230.152 335.582C230.41 335.512 230.672 335.442 230.93 335.36C231.004 335.34 231.078 335.325 231.152 335.301L618.805 208.122C621.789 207.141 625.051 208.414 626.586 211.157L700.441 343.079C701.895 345.676 701.344 348.934 699.113 350.911ZM744.395 350.262C744.371 349.911 744.355 349.559 744.309 349.211C744.277 348.957 744.23 348.704 744.188 348.454C744.133 348.125 744.086 347.801 744.012 347.477C743.945 347.176 743.855 346.875 743.773 346.575C743.699 346.309 743.633 346.043 743.547 345.778C743.426 345.403 743.277 345.036 743.129 344.668C743.055 344.481 742.992 344.293 742.91 344.11C742.727 343.684 742.508 343.27 742.289 342.856C742.23 342.743 742.184 342.622 742.117 342.508L742.051 342.387C742.031 342.356 742.012 342.321 741.992 342.286L648.551 175.375C648.547 175.364 648.535 175.352 648.527 175.34C648.25 174.84 647.941 174.36 647.621 173.891C647.594 173.856 647.574 173.813 647.543 173.778C647.234 173.332 646.898 172.911 646.551 172.5C646.504 172.442 646.461 172.379 646.414 172.325C646.148 172.02 645.867 171.739 645.582 171.454C645.438 171.305 645.301 171.149 645.152 171.008C645.129 170.985 645.109 170.969 645.09 170.954C643.062 169.055 640.656 167.684 638.074 166.868C637.898 166.813 637.727 166.747 637.551 166.692C637.336 166.633 637.117 166.594 636.902 166.543C635.789 166.27 634.648 166.102 633.492 166.043C633.094 166.02 632.695 165.997 632.297 166C632.223 166 632.152 166.012 632.078 166.012C631.547 166.028 631.016 166.055 630.484 166.118C630.457 166.122 630.434 166.129 630.406 166.129C629.824 166.2 629.25 166.293 628.676 166.418C628.621 166.43 628.57 166.45 628.523 166.461C627.98 166.582 627.441 166.727 626.902 166.899C626.887 166.907 626.871 166.911 626.855 166.914L225.688 298.524C224 299.079 222.227 299.297 220.457 299.176L42.4375 286.754C42.2891 286.747 42.1523 286.754 42.0078 286.747C41.6563 286.731 41.3047 286.723 40.957 286.727C40.7031 286.731 40.457 286.739 40.207 286.75C39.8281 286.77 39.4531 286.801 39.082 286.844C38.8594 286.868 38.6328 286.895 38.4141 286.93C38.0313 286.989 37.6523 287.059 37.2773 287.141C37.0703 287.184 36.8594 287.231 36.6523 287.286C36.2773 287.379 35.9141 287.485 35.5469 287.606C35.3477 287.672 35.1445 287.739 34.9453 287.809C34.5898 287.938 34.2383 288.079 33.8945 288.231C33.6953 288.313 33.5 288.403 33.3047 288.497C32.9688 288.657 32.6367 288.825 32.3125 289.008C32.1211 289.11 31.9297 289.219 31.7422 289.332C31.4297 289.52 31.125 289.719 30.8242 289.926C30.6367 290.051 30.457 290.18 30.2773 290.313C29.9883 290.528 29.707 290.75 29.4297 290.981C29.2539 291.129 29.082 291.274 28.9102 291.43C28.6484 291.664 28.3945 291.911 28.1445 292.161C27.9766 292.329 27.8164 292.5 27.6523 292.672C27.4219 292.926 27.1992 293.188 26.9805 293.457C26.8203 293.649 26.668 293.844 26.5195 294.043C26.3203 294.305 26.1289 294.579 25.9414 294.856C25.793 295.079 25.6523 295.297 25.5156 295.524C25.3477 295.797 25.1914 296.075 25.0391 296.356C24.9063 296.606 24.7773 296.856 24.6523 297.114C24.5234 297.387 24.3945 297.664 24.2773 297.946C24.1602 298.227 24.0508 298.508 23.9453 298.793C23.8477 299.071 23.7578 299.348 23.668 299.629C23.5742 299.934 23.4883 300.243 23.4102 300.555C23.3398 300.836 23.2773 301.118 23.2188 301.403C23.1562 301.723 23.1016 302.047 23.0547 302.372C23.0313 302.52 22.9922 302.661 22.9727 302.809L0.117188 489.946C0.0976565 490.122 0.0976562 490.293 0.0820312 490.465C0.0507812 490.797 0.0234368 491.129 0.0117188 491.465C-2.49594e-07 491.75 0 492.032 0 492.313C0.003906 492.625 0.00781175 492.934 0.0273438 493.25C0.0429688 493.547 0.0703125 493.84 0.101562 494.133C0.132812 494.43 0.171875 494.727 0.21875 495.02C0.265625 495.317 0.320312 495.61 0.378906 495.903C0.441406 496.196 0.507812 496.485 0.582031 496.774C0.660156 497.063 0.738281 497.344 0.828125 497.625C0.917969 497.914 1.01563 498.2 1.11719 498.485C1.22266 498.762 1.33203 499.036 1.44922 499.309C1.5625 499.582 1.68359 499.856 1.81641 500.125C1.94922 500.403 2.09375 500.676 2.24219 500.946C2.37891 501.2 2.51953 501.446 2.67188 501.692C2.83984 501.973 3.02344 502.247 3.21094 502.52C3.3125 502.664 3.39453 502.817 3.5 502.961L22.5547 529.09C24.1289 531.254 24.9844 533.868 24.9844 536.543V565.973C24.9844 576.094 33.1875 584.297 43.3047 584.297H602.527C612.645 584.297 620.848 576.094 620.848 565.973V473.082C620.848 470.594 621.914 468.223 623.777 466.571L738.094 365.34C738.117 365.317 738.141 365.297 738.164 365.278L738.277 365.176C738.387 365.079 738.477 364.973 738.586 364.875C738.918 364.567 739.246 364.258 739.551 363.93C739.695 363.774 739.82 363.61 739.957 363.454C740.211 363.161 740.469 362.868 740.703 362.559C740.875 362.336 741.027 362.102 741.188 361.875C741.359 361.622 741.539 361.372 741.703 361.106C741.879 360.825 742.031 360.536 742.191 360.247C742.313 360.02 742.441 359.801 742.555 359.571C742.711 359.254 742.844 358.934 742.98 358.61C743.074 358.391 743.172 358.176 743.258 357.95C743.379 357.633 743.48 357.305 743.582 356.981C743.656 356.743 743.738 356.504 743.805 356.258C743.887 355.957 743.949 355.653 744.016 355.348C744.078 355.071 744.141 354.797 744.188 354.516C744.234 354.243 744.266 353.969 744.297 353.692C744.336 353.375 744.379 353.063 744.402 352.743C744.418 352.497 744.422 352.25 744.426 352.004C744.438 351.661 744.449 351.313 744.441 350.969C744.434 350.731 744.41 350.497 744.395 350.262Z"/>
  <path d="M507.57 283.301C497.449 283.301 489.246 291.504 489.246 301.621V490.945C489.246 501.062 497.449 509.266 507.57 509.266C517.691 509.266 525.895 501.062 525.895 490.945V301.621C525.895 291.504 517.691 283.301 507.57 283.301Z"/>
</svg>

<svg width="750" height="750" fill="none" xmlns="http://www.w3.org/2000/svg"><path d="M317.66 335.91c-10.121 0-18.324 8.199-18.324 18.32v149.965c0 10.117 8.203 18.321 18.324 18.321 10.113 0 18.32-8.204 18.32-18.321V354.23c0-10.121-8.207-18.32-18.32-18.32zM128.938 358.938c-10.122 0-18.325 8.203-18.325 18.324v123.183c0 10.121 8.203 18.321 18.325 18.321 10.117 0 18.32-8.2 18.32-18.321V377.262c0-10.121-8.203-18.324-18.32-18.324zM223.297 392.145c-10.121 0-18.32 8.203-18.32 18.32v75.164c0 10.117 8.199 18.32 18.32 18.32s18.32-8.203 18.32-18.32v-75.164c0-10.117-8.199-18.32-18.32-18.32zM412.613 346.633c-10.117 0-18.32 8.203-18.32 18.32v95.965c0 10.117 8.203 18.32 18.32 18.32s18.321-8.203 18.321-18.32v-95.965c0-10.117-8.204-18.32-18.321-18.32zM602.527 283.301c-10.121 0-18.324 8.203-18.324 18.32v65.649c0 10.117 8.203 18.32 18.324 18.32 10.118 0 18.321-8.203 18.321-18.32v-65.649c0-10.117-8.203-18.32-18.321-18.32zM507.57 283.301c-10.121 0-18.324 8.203-18.324 18.32v189.324c0 10.117 8.203 18.321 18.324 18.321 10.121 0 18.325-8.204 18.325-18.321V301.621c0-10.117-8.204-18.32-18.325-18.32z" fill="#187800"/><path d="M43.5 566H603V460.5l123-109-93.5-167-407 133-185-12.5-22 187 25 35v39z" stroke="#187800" stroke-width="37" stroke-linecap="round" stroke-linejoin="round"/></svg>
